X:1
T:Nocturne
T:Nocturne
T:A.R. Härle
C:A.R. Härle
%%score { ( 1 3 ) | 2 }
L:1/8
Q:1/4=60
M:3/4
K:E
V:1 treble nm="Piano" snm="Pno."
V:3 treble 
V:2 treble 
V:1
!p! [Gc^e]2 [Gce]4 | [^^Gcf]2 [Gcf]4 | [c^eg]2 [^^G^Bd]4 | [Gc^e]2 [Gce]4 | ^e2 d4 | c2 ^B2 B2- | %6
 B2 ^B2 c2 | c4 z2 |!mp! =f2 c4 | G^A ^Bc B2 | G4{c} gf | ^ed e2 c2 | G^A ^Bc B2 | =f4 d2 | c6 | %15
!p! !^!=f2 !^!c4 | !^!f2 !^!c4 | !^!f2 !^!a4 | g2 =f4 | d4- dc | =f4 z2 | [Gc^e]2 [Gce]4 | %22
 [^^Gcf]2 [Gcf]4 | [c^eg]2 [^^G^Bd]4 | [Gc^e]2 [Gce]4 |!mp! [Gc]2 [EG]4 | [Gc]2 [EG]2 [Gc]2 | %27
 [^Bd]2 [DG]4 | [^Bd]2 [ce]2 [Bd]2 | [Gc]2 [^EG]4 | [^EGB]2 [EGc]2 [EG=d]2 | [^EG=d]2 [FAc]4 | %32
 !^!=f2 !^!c4 | !^!f2 !^!c4 | !^!f2 !^!a4 | g2 =f4 | d4- dc | %37
!>(!"_dim." (3=fc=c (3BG=F (3G^c!p!f!>)! |!mp! =f2 c4 | G^A ^Bc B2 | G4{c} gf | ^ed e2 c2 | %42
 G^A ^Bc B2 | =f4 d2 | c6 |] %45
V:2
!ped! ^E2 C4!ped-up! |!ped! F2 C4!ped-up! |!ped! G2 D4!ped-up! |!ped! ^E2 C4!ped-up! | %4
!ped! ^E2 G4!ped-up! |!ped! [^A,CE]2[K:bass] [^E,^B,D]4-!ped-up! | %6
!ped! [E,B,D]4 [G,C^E]2-!ped-up! |!ped! [G,CE]4 z2!ped-up! | %8
[K:bass]!ped! (3C,^E,G, (3CG,E, (3C,E,G,!ped-up! | %9
!ped! (3C,^E,G, (3CG,E,!ped-up!!ped! (3G,,=C,D,!ped-up! | %10
!ped! (3G,D,=C, (3G,,C,D,!ped-up!!ped! (3^C,^E,G,!ped-up! | %11
!ped! (3C,^E,G, (3CG,E, (3C,E,G,!ped-up! |!ped! (3C,^E,G, (3CG,E,!ped-up!!ped! (3G,,=C,D,!ped-up! | %13
!ped! (3G,C^E (3CG,=F,!ped-up!!ped! (3G,D,=C,!ped-up! |!ped! (3C,^E,G, C4!ped-up! | %15
!ped! [^EG][EG] [EG][EG] [EG][EG]!ped-up! |!ped! [Ac][Ac] [Ac][Ac] [Ac][Ac]!ped-up! | %17
!ped! [Ac][Ac] [Ac][Ac] [Ac][Ac]!ped-up! |!ped! [Gc][Gc] [Gc][Gc] [Gc][Gc]!ped-up! | %19
!ped! [A=c][Ac] [Ac][Ac] [Ac][Ac]!ped-up! |!ped! [^EG][EG] [EG][EG] [EG][EG]!ped-up! | z6 | z6 | %23
 z6 | z6 |[K:bass]!ped! C,,G,, C,G,, E,G,,!ped-up! |!ped! C,G,, C,,G,, C,G,,!ped-up! | %27
!ped! G,,D, G,D, ^B,D,!ped-up! |!ped! G,D,!ped-up!!ped! C,G,,!ped-up!!ped! D,G,,!ped-up! | %29
!ped! C,,G,, ^E,G, B,C!ped-up! |!ped! C,,G,,!ped-up!!ped! ^E,G,!ped-up!!ped! B,C!ped-up! | %31
 [=D,=D][=F,G,] [C,C]4 |[K:treble]!ped! [^EG][EG] [EG][EG] [EG][EG]!ped-up! | %33
!ped! [Ac][Ac] [Ac][Ac] [Ac][Ac]!ped-up! |!ped! [Ac][Ac] [Ac][Ac] [Ac][Ac]!ped-up! | %35
!ped! [Gc][Gc] [Gc][Gc] [Gc][Gc]!ped-up! |!ped! [A=c][Ac] [Ac][Ac] [Ac][Ac]!ped-up! | %37
!ped! [^EG][EG]!ped-up!!ped! [G,=D][G,D]!ped-up!!ped! [G,C][G,C]!ped-up! | %38
[K:bass]!ped! (3C,^E,G, (3CG,E, (3C,E,G,!ped-up! | %39
!ped! (3C,^E,G, (3CG,E,!ped-up!!ped! (3G,,=C,D,!ped-up! | %40
!ped! (3G,D,=C, (3G,,C,D,!ped-up!!ped! (3^C,^E,G,!ped-up! | %41
!ped! (3C,^E,G, (3CG,E, (3C,E,G,!ped-up! |!ped! (3C,^E,G, (3CG,E,!ped-up!!ped! (3G,,=C,D,!ped-up! | %43
!ped! (3G,C^E (3CG,=F,!ped-up!!ped! (3G,D,=C,!ped-up! |!ped! (3C,^E,G, C4!ped-up! |] %45
V:3
 x6 | x6 | x6 | x6 | x6 | x6 | x6 | x6 | x6 | x6 | x6 | x6 | x6 | x6 | x6 | x6 | x6 | x6 | x6 | %19
 x6 | x6 | x6 | x6 | x6 | x6 | x6 | x6 | x6 | x6 | x6 | x6 | x6 | x6 | x6 | x6 | x6 | x6 | x6 | %38
 x6 | x6 | x6 | x6 | x6 | x6 | x2!pp! [=fgc']4 |] %45

